!!!OTL: Xi huanggua
!!!ARE: Asia, China,ÿJiangxi, Lean
!! IV, 234
!!!SCT: C1678
!!!YEM: Copyright 1995, estate of Helmut Schaffrath.
**kern
*ICvox
*Ivox
*M2/4
*k[]
*C:
{8a
16dd
16ee
8dd
8a
=1
8ee
16cc
16dd
8cc
8a
=2
[2cc
=3
4.cc]
8a}
=4
{8a
16cc
16dd
8cc
8a
=5
8cc
16a
16ee
8ee
8cc
=6
[2a
=7
4.a]
16g
16e}
=8
{8cc
16a
16cc
8g
16g
16e
=9
8ee
8cc
8a
16a
16cc
=10
8dd
16dd
16cc
8dd
[8ee
=11
4.ee]
16cc
16a}
=12
{8ee
8cc
8a
16a
16cc
=13
8dd
16dd
16cc
8cc
[8a
=14
2a]}
==
!!!AGN: Shange
!!!AMT: simple duple
!!!AIN: vox
!!!EED: Helmut Schaffrath
!!!EEV: 1.0
*-
!!!ONB: Tied note syntax fixed by Craig Sapp, 2004/05/03/
